libs/ui/packages/crypto-icons/src/svg/THETA.svg

<svg width="24" height="24" viewBox="0 0 24 24" fill="none">
<path d="M8.22 4.5H15.78L16.5 5.24475V18.7552L15.78 19.5H8.22L7.5 18.7552V5.24475L8.22 4.5ZM8.94 18.0098H15.06V5.99025H8.94V18.0098ZM14.2905 14.1322H12.7252V15.8295H11.3123V14.133H9.747V12.6713H14.2905V14.1322ZM14.2905 9.94575V11.4067H9.747V9.94575H11.3123V8.2485H12.7252V9.94575H14.2905Z" fill="#2AB8E6"/>
</svg>

<svg width="24" height="24" viewBox="0 0 24 24" fill="none"><path fill="#2ab8e6" d="M8.22 4.5h7.56l.72.745v13.51l-.72.745H8.22l-.72-.745V5.245zm.72 13.51h6.12V5.99H8.94zm5.35-3.878h-1.565v1.697h-1.413v-1.696H9.747v-1.462h4.544zm0-4.186v1.46H9.747v-1.46h1.565V8.249h1.413v1.697z"/></svg>
